X: 34820
T: Road To The Reel
R: jig
M: 6/8
K: Fmajor
|:A2A Acf|A2c AGF|A2G Acd|fdc AGG|
A2G Acf|A2c AGF|A2G Acd|gfd cAG:|
|:Acd f3|gfa gfd|Acd f2a|gfd cAG|
Acd f3|g2a gfd|f3 g2a|gfd cAG:|

